X: 217
T:North Skelton 1, v 3
% Nottingham Music Database
S:Trad, via EF
M:6/8
K:C
"C"ede G2G|"F"Aca "G7"g3|"C"ede gcG|"G7"A2B "C"c3|"C"ede g2G|
"F"Aca "G7"gab|"C"c'ba "C"gfe|"F"d3 "G7"c2d|"C"e3 "G"d3|"Am"cdc "Em"BAG|
"Am"e3 "G"f3|"C"def "C7"g3|"F"a2c' "C"gec|"G7"f2g "C"e3|"C"cde "F"f2d|\
"G7"g3 "C"c3||<end>
<start>
